X:1
T:test
T:La Cumparsita
T:G.H.Matos Rodríguez Arr.: Javier Tucat Moreno
T:Parte A
T:TANGO
%%score { 1 | 2 }
L:1/8
Q:1/4=96
M:4/4
K:Bb
V:1 treble nm="Piano" snm="Pno."
V:2 bass 
V:1
"D7" !1!D2 !5!c2 !3!A2 !2!^F2 | z !1!D!3!E!1!D !2!^C2 !1!D2 |"Gm" !1!D2 !5!d2 !3!B2 !2!G2 | %3
 z DED ^C2 D2 |"D7" D2 c2 A2 ^F2 | z DED ^C2 D2 |"Gm" D2 d2 B2 G2 | z !1!D!3!E!1!D !2!^C2 !3!D2 | %8
"Cm" !1!C2 !5!G2 !4!^F2 !5!G2 | z !4!^F!5!G!4!F !5!G2 !4!F2 |"Gm" !1!B,2 !5!G2 !4!^F2 !5!G2 | %11
 z ^FGF G2 F2 |"D7" !1!A,2 !3!D2 !2!C2 !3!D2 | z !4!c!3!B!2!A !1!G2 !2!^F2 | %14
"Gm" !1!G2 z2 !1!!2!!5![Bdg]2 z2 |] %15
V:2
 !5!!3!!1![D,^F,A,]2 z2 [D,F,A,]2 z2 | [D,^F,A,]2 z2 [D,F,A,]2 z2 | %2
 !5!!2!!1![D,G,B,]2 z2 [D,G,B,]2 z2 | [D,G,B,]2 z2 [D,G,B,]2 z2 | [D,^F,A,]2 z2 [D,F,A,]2 z2 | %5
 [D,^F,A,]2 z2 [D,F,A,]2 z2 | [D,G,B,]2 z2 [D,G,B,]2 z2 | [D,G,B,]2 z2 [D,G,B,]2 z2 | %8
 !4!!2![E,G,C]2 z2 !1![E,G,C]2 z2 | [E,G,C]2 z2 [E,G,C]2 z2 | [D,G,B,]2 z2 [D,G,B,]2 z2 | %11
 [D,G,B,]2 z2 [D,G,B,]2 z2 | [D,^F,A,]2 z2 [D,F,A,]2 z2 | [D,^F,A,]8 | %14
"_La Cumparsita [Parte A] Video-Tutorial - www.javiertucatmoreno.com/tutoriales" [D,G,B,]2 !1!D,2 !5!G,,2"^Fine" z2 |] %15

